src/pos-icons/qi.svg

<svg height="24" viewBox="0 0 24 24" width="24" xmlns="http://www.w3.org/2000/svg"><path d="m12.09 6.56v8.08c0 .08-.09.15-.15.15-2.32 0-4.19-1.88-4.19-4.19 0-2.32 1.87-4.2 4.19-4.2.06 0 .15.07.15.16m0 11.3v2.43c-.03 1.4 1.03 2.58 2.41 2.71.16 0 .28-.11.29-.27v-18.26c-.01-.17-.11-.32-.29-.38-3.58-1.42-7.64.35-9.06 3.94-1.44 3.6.35 7.66 3.94 9.08.78.31 1.62.47 2.43.49.14-.01.26.11.27.27m4.11-12.37v10.22c0 .28 0 .48.27.28 2.96-2.5 3.35-6.91.87-9.87-.26-.32-.56-.63-.87-.87-.27-.21-.27 0-.27.27m-1.4-3.1c0-.77.63-1.4 1.4-1.4s1.4.63 1.4 1.4-.63 1.4-1.4 1.4c-.77 0-1.4-.63-1.4-1.4"/></svg>

<?xml version="1.0" encoding="UTF-8"?><!DOCTYPE svg PUBLIC "-//W3C//DTD SVG 1.1//EN" "http://www.w3.org/Graphics/SVG/1.1/DTD/svg11.dtd"><svg xmlns="http://www.w3.org/2000/svg" xmlns:xlink="http://www.w3.org/1999/xlink" version="1.1" id="mdi-qi" width="24" height="24" viewBox="0 0 24 24"><path d="M12.09,6.56V14.64C12.09,14.72 12,14.79 11.94,14.79C9.62,14.79 7.75,12.91 7.75,10.6C7.75,8.28 9.62,6.4 11.94,6.4C12,6.4 12.09,6.47 12.09,6.56M12.09,17.86V20.29C12.06,21.69 13.12,22.87 14.5,23C14.66,23 14.78,22.89 14.79,22.73V4.47C14.78,4.3 14.68,4.15 14.5,4.09C10.92,2.67 6.86,4.44 5.44,8.03C4,11.63 5.79,15.69 9.38,17.11C10.16,17.42 11,17.58 11.81,17.6C11.95,17.59 12.07,17.71 12.08,17.87M16.19,5.5V15.72C16.19,16 16.19,16.2 16.46,16V16C19.42,13.5 19.81,9.09 17.33,6.13C17.07,5.81 16.77,5.5 16.46,5.26C16.19,5.05 16.19,5.26 16.19,5.53M14.79,2.43C14.79,1.66 15.42,1.03 16.19,1.03C16.96,1.03 17.59,1.66 17.59,2.43C17.59,3.2 16.96,3.83 16.19,3.83V3.83C15.42,3.83 14.79,3.2 14.79,2.43" /></svg>
